X:351
T:Excuse Me.
C:John Malchair's Third Collection of Tunes
F:https://www.vwml.org/record/Malchair/3619/p35
F:www.vwml.org/topics/historic-dance-and-tune-books/Malchair
Z:Eric Conrad Jan 2020
N:NB1 No repeats in MS.  Assuming parts are repeated.
M:6/8 % MS has 6/4
L:1/8
R:jig
W:an other on p 43.
K:Gm
P:A
|: G2G G2g | f2e d2e | f>gf cdB | A3 F3 |
f>ed e>dc | d>ed c>BA | B>AG A^F2 | (G3 G3) :|
P:B
|: B2c dBG | B2c dBG | B2c d2g | ^f3 d3 :|
P:C
|: ABc c>dc | f2c A2A | Bcd d>ed | g2f ^e>dc |
f2f f>ed | c2B A2^f | g2d e>dc | A3 G3 :|

